app/renderer/assets/image/components/joystick.svg

<?xml version="1.0" encoding="UTF-8"?>
<svg width="150px" height="150px" viewBox="0 0 150 150" version="1.1" xmlns="http://www.w3.org/2000/svg" xmlns:xlink="http://www.w3.org/1999/xlink">
    <!-- Generator: Sketch 46.1 (44463) - http://www.bohemiancoding.com/sketch -->
    <title>joystick</title>
    <desc>Created with Sketch.</desc>
    <defs>
        <radialGradient cx="50.2365168%" cy="13.6299536%" fx="50.2365168%" fy="13.6299536%" r="38.8798834%" gradientTransform="translate(0.502365,0.136300),scale(0.454383,1.000000),translate(-0.502365,-0.136300)" id="radialGradient-1">
            <stop stop-color="#4F5758" offset="0%"></stop>
            <stop stop-color="#393F3E" offset="100%"></stop>
        </radialGradient>
        <radialGradient cx="50.2320982%" cy="13.6353403%" fx="50.2320982%" fy="13.6353403%" r="36.7259434%" gradientTransform="translate(0.502321,0.136353),scale(0.387672,1.000000),translate(-0.502321,-0.136353)" id="radialGradient-2">
            <stop stop-color="#000000" offset="0%"></stop>
            <stop stop-color="#020202" stop-opacity="0.5065" offset="49.35%"></stop>
            <stop stop-color="#080909" stop-opacity="0.3288" offset="67.12%"></stop>
            <stop stop-color="#131414" stop-opacity="0.2021" offset="79.79%"></stop>
            <stop stop-color="#222525" stop-opacity="0.1003" offset="89.97%"></stop>
            <stop stop-color="#353B3A" stop-opacity="0.01348937" offset="98.65%"></stop>
            <stop stop-color="#393F3E" stop-opacity="0" offset="100%"></stop>
        </radialGradient>
        <linearGradient x1="50.0139979%" y1="99.757037%" x2="50.0139979%" y2="-0.0259259259%" id="linearGradient-3">
            <stop stop-color="#171717" offset="0%"></stop>
            <stop stop-color="#000000" offset="66.64%"></stop>
        </linearGradient>
        <radialGradient cx="49.6398246%" cy="20.3831788%" fx="49.6398246%" fy="20.3831788%" r="50.0692982%" gradientTransform="translate(0.496398,0.203832),scale(0.265514,1.000000),translate(-0.496398,-0.203832)" id="radialGradient-4">
            <stop stop-color="#4F5758" offset="0%"></stop>
            <stop stop-color="#393F3E" offset="100%"></stop>
        </radialGradient>
    </defs>
    <g id="Page-1" stroke="none" stroke-width="1" fill="none" fill-rule="evenodd">
        <g id="joystick" fill-rule="nonzero">
            <polygon id="Shape" fill="#838698" points="34.6730769 131.5 36.5769231 128 39 128 35.8846154 133 39 138 36.5769231 138 34.5 134.5 32.4230769 138 30 138 33.1153846 133 30 128 32.4230769 128"></polygon>
            <polygon id="Shape" fill="#838698" points="44.4181818 135.5 46.7090909 128 49 128 45.5636364 138 43.4363636 138 40 128 42.2909091 128"></polygon>
            <path d="M59,136.580645 C58.64,137.112903 58.1,137.467742 57.2,137.645161 C56.48,137.822581 55.58,138 54.68,138 C53.78,138 52.88,137.822581 52.16,137.467742 C51.44,137.112903 50.9,136.403226 50.54,135.693548 C50.18,134.983871 50,134.096774 50,133.032258 L50,132.322581 C50,131.258065 50.18,130.370968 50.54,129.483871 C50.9,128.596774 51.44,128.064516 52.16,127.709677 C52.88,127.354839 53.6,127 54.5,127 C55.76,127 56.84,127.354839 57.56,127.887097 C58.28,128.419355 58.64,129.306452 58.82,130.548387 L56.66,130.548387 C56.48,130.016129 56.3,129.483871 55.94,129.129032 C55.58,128.774194 55.04,128.774194 54.5,128.774194 C53.78,128.774194 53.24,129.129032 52.7,129.66129 C52.16,130.193548 52.16,131.080645 52.16,132.145161 L52.16,132.854839 C52.16,133.919355 52.34,134.806452 52.88,135.33871 C53.24,135.870968 53.96,136.225806 54.86,136.225806 C55.76,136.225806 56.3,136.048387 56.66,135.693548 L56.66,133.919355 L54.68,133.919355 L54.68,132.322581 L59,132.322581 L59,136.580645 L59,136.580645 Z" id="Shape" fill="#838698"></path>
            <polygon id="Shape" fill="#838698" points="94.4150943 132.42623 96.6226415 128 99 128 95.6037736 134.393443 95.6037736 138 93.3962264 138 93.3962264 134.393443 90 128 92.3773585 128"></polygon>
            <polygon id="Shape" fill="#838698" points="103.418182 135.5 105.709091 128 108 128 104.563636 138 102.436364 138 99 128 101.290909 128"></polygon>
            <path d="M118,136.580645 C117.64,137.112903 117.1,137.467742 116.2,137.645161 C115.48,137.822581 114.58,138 113.68,138 C112.78,138 111.88,137.822581 111.16,137.467742 C110.44,137.112903 109.9,136.403226 109.54,135.693548 C109.18,134.983871 109,134.096774 109,133.032258 L109,132.322581 C109,131.258065 109.18,130.370968 109.54,129.483871 C109.9,128.596774 110.44,128.064516 111.16,127.709677 C111.88,127.354839 112.6,127 113.5,127 C114.76,127 115.84,127.354839 116.56,127.887097 C117.28,128.419355 117.64,129.306452 117.82,130.548387 L115.66,130.548387 C115.48,130.016129 115.3,129.483871 114.94,129.129032 C114.58,128.774194 114.04,128.774194 113.5,128.774194 C112.78,128.774194 112.24,129.129032 111.7,129.66129 C111.16,130.193548 111.16,131.080645 111.16,132.145161 L111.16,132.854839 C111.16,133.919355 111.34,134.806452 111.88,135.33871 C112.24,135.870968 112.96,136.225806 113.86,136.225806 C114.76,136.225806 115.3,136.048387 115.66,135.693548 L115.66,133.919355 L113.68,133.919355 L113.68,132.322581 L118,132.322581 L118,136.580645 L118,136.580645 Z" id="Shape" fill="#838698"></path>
            <polygon id="Shape" fill="#838698" points="65 18.0655738 64 19.2131148 64 22 62 22 62 12.1639344 64 12.1639344 64 16.5901639 64.8333333 15.2786885 67.3333333 12 69.8333333 12 66.3333333 16.4262295 70 22 67.5 22"></polygon>
            <polygon id="Shape" fill="#838698" points="74.4181818 19.5 76.7090909 12 79 12 75.5636364 22 73.4363636 22 70 12 72.2909091 12"></polygon>
            <path d="M89,21.5806452 C88.64,22.1129032 88.1,22.4677419 87.2,22.6451613 C86.48,22.8225806 85.58,23 84.68,23 C83.78,23 82.88,22.8225806 82.16,22.4677419 C81.44,22.1129032 80.9,21.4032258 80.54,20.6935484 C80.18,19.983871 80,19.0967742 80,18.0322581 L80,17.3225806 C80,16.2580645 80.18,15.3709677 80.54,14.483871 C80.9,13.5967742 81.44,13.0645161 82.16,12.7096774 C82.88,12.3548387 83.6,12 84.5,12 C85.76,12 86.84,12.3548387 87.56,12.8870968 C88.28,13.4193548 88.64,14.3064516 88.82,15.5483871 L86.66,15.5483871 C86.48,15.016129 86.3,14.483871 85.94,14.1290323 C85.58,13.7741935 85.04,13.7741935 84.5,13.7741935 C83.78,13.7741935 83.24,14.1290323 82.7,14.6612903 C82.16,15.1935484 82.16,16.0806452 82.16,17.1451613 L82.16,17.8548387 C82.16,18.9193548 82.34,19.8064516 82.88,20.3387097 C83.24,20.8709677 83.96,21.2258065 84.86,21.2258065 C85.76,21.2258065 86.3,21.0483871 86.66,20.6935484 L86.66,18.9193548 L84.68,18.9193548 L84.68,17.3225806 L89,17.3225806 L89,21.5806452 L89,21.5806452 Z" id="Shape" fill="#838698"></path>
            <path d="M124,94.0431818 C124,89.7477273 107.571429,67.8409091 75,67.8409091 C42.4285714,67.8409091 26,89.7477273 26,94.0431818 L26,93.7568182 C26,94.1863636 26,95.6181818 26,96.0477273 C26,105.211364 48,112.370455 75,112.370455 C102.142857,112.370455 124,105.354545 124,96.0477273 C124,95.6181818 124,94.1863636 124,93.7568182 L124,94.0431818 Z" id="Shape" fill="url(#radialGradient-1)"></path>
            <path d="M105.285714,77.5772727 C105.285714,76.7181818 105.142857,75.8590909 104.714286,75 C97,70.9909091 87.1428571,67.8409091 75,67.8409091 C62.8571429,67.8409091 52.8571429,70.8477273 45.2857143,75 C45,75.8590909 44.7142857,76.7181818 44.7142857,77.5772727 C44.7142857,85.1659091 58.2857143,91.3227273 75,91.3227273 C91.7142857,91.3227273 105.285714,85.0227273 105.285714,77.5772727 Z" id="Shape" fill="url(#radialGradient-2)" opacity="0.25"></path>
            <path d="M80.1428571,40.6363636 L69.7142857,40.6363636 C66.2857143,42.7840909 63.2857143,46.65 60.8571429,50.9454545 L60.8571429,73.1386364 C60.8571429,73.425 61.4285714,76.7181818 63.1428571,77.2909091 C66.8571429,79.0090909 69.8571429,79.2954545 75.4285714,79.2954545 C80.5714286,79.2954545 83.1428571,79.1522727 86.7142857,77.5772727 C89.4285714,76.8613636 89,72.2795455 89,71.85 L89,50.2295455 C86.5714286,46.0772727 83.4285714,42.6409091 80.1428571,40.6363636 Z" id="Shape" fill="url(#linearGradient-3)"></path>
            <path d="M115.714286,48.6545455 C115.714286,45.9340909 102.142857,35.9113636 75,35.9113636 C47.8571429,35.9113636 34.2857143,45.9340909 34.2857143,48.6545455 L34.2857143,48.5113636 C34.2857143,48.7977273 34.2857143,49.8 34.2857143,49.9431818 C34.2857143,55.8136364 52.5714286,57.5318182 75,57.5318182 C97.4285714,57.5318182 115.714286,55.8136364 115.714286,49.9431818 C115.714286,49.6568182 115.714286,48.6545455 115.714286,48.5113636 L115.714286,48.6545455 Z" id="Shape" fill="url(#radialGradient-4)"></path>
        </g>
    </g>
</svg>

<svg width="150" height="150" xmlns="http://www.w3.org/2000/svg"><defs><radialGradient cx="50.237%" cy="13.63%" fx="50.237%" fy="13.63%" r="38.88%" gradientTransform="matrix(.45438 0 0 1 .274 0)" id="a"><stop stop-color="#4F5758" offset="0%"/><stop stop-color="#393F3E" offset="100%"/></radialGradient><radialGradient cx="50.232%" cy="13.635%" fx="50.232%" fy="13.635%" r="36.726%" gradientTransform="matrix(.38767 0 0 1 .308 0)" id="b"><stop offset="0%"/><stop stop-color="#020202" stop-opacity=".506" offset="49.35%"/><stop stop-color="#080909" stop-opacity=".329" offset="67.12%"/><stop stop-color="#131414" stop-opacity=".202" offset="79.79%"/><stop stop-color="#222525" stop-opacity=".1" offset="89.97%"/><stop stop-color="#353B3A" stop-opacity=".013" offset="98.65%"/><stop stop-color="#393F3E" stop-opacity="0" offset="100%"/></radialGradient><linearGradient x1="50.014%" y1="99.757%" x2="50.014%" y2="-.026%" id="c"><stop stop-color="#171717" offset="0%"/><stop offset="66.64%"/></linearGradient><radialGradient cx="49.64%" cy="20.383%" fx="49.64%" fy="20.383%" r="50.069%" gradientTransform="matrix(.26551 0 0 1 .365 0)" id="d"><stop stop-color="#4F5758" offset="0%"/><stop stop-color="#393F3E" offset="100%"/></radialGradient></defs><g fill="none"><path fill="#838698" d="M34.673 131.5l1.904-3.5H39l-3.115 5L39 138h-2.423l-2.077-3.5-2.077 3.5H30l3.115-5L30 128h2.423zm9.745 4l2.291-7.5H49l-3.436 10h-2.128L40 128h2.29zM59 136.58c-.36.533-.9.888-1.8 1.065-.72.178-1.62.355-2.52.355-.9 0-1.8-.177-2.52-.532-.72-.355-1.26-1.065-1.62-1.774-.36-.71-.54-1.597-.54-2.662v-.71c0-1.064.18-1.951.54-2.838.36-.887.9-1.42 1.62-1.774.72-.355 1.44-.71 2.34-.71 1.26 0 2.34.355 3.06.887.72.532 1.08 1.42 1.26 2.661h-2.16c-.18-.532-.36-1.064-.72-1.419s-.9-.355-1.44-.355c-.72 0-1.26.355-1.8.887-.54.533-.54 1.42-.54 2.484v.71c0 1.064.18 1.951.72 2.484.36.532 1.08.887 1.98.887.9 0 1.44-.178 1.8-.532v-1.775h-1.98v-1.596H59v4.258zm35.415-4.154L96.623 128H99l-3.396 6.393V138h-2.208v-3.607L90 128h2.377zm9.003 3.074l2.291-7.5H108l-3.436 10h-2.128L99 128h2.29zM118 136.58c-.36.533-.9.888-1.8 1.065-.72.178-1.62.355-2.52.355-.9 0-1.8-.177-2.52-.532-.72-.355-1.26-1.065-1.62-1.774-.36-.71-.54-1.597-.54-2.662v-.71c0-1.064.18-1.951.54-2.838.36-.887.9-1.42 1.62-1.774.72-.355 1.44-.71 2.34-.71 1.26 0 2.34.355 3.06.887.72.532 1.08 1.42 1.26 2.661h-2.16c-.18-.532-.36-1.064-.72-1.419s-.9-.355-1.44-.355c-.72 0-1.26.355-1.8.887-.54.533-.54 1.42-.54 2.484v.71c0 1.064.18 1.951.72 2.484.36.532 1.08.887 1.98.887.9 0 1.44-.178 1.8-.532v-1.775h-1.98v-1.596H118v4.258zM65 18.066l-1 1.147V22h-2v-9.836h2v4.426l.833-1.311 2.5-3.279h2.5l-3.5 4.426L70 22h-2.5zm9.418 1.434L76.71 12H79l-3.436 10h-2.128L70 12h2.29zM89 21.58c-.36.533-.9.888-1.8 1.065-.72.178-1.62.355-2.52.355-.9 0-1.8-.177-2.52-.532-.72-.355-1.26-1.065-1.62-1.774-.36-.71-.54-1.597-.54-2.662v-.71c0-1.064.18-1.951.54-2.838.36-.887.9-1.42 1.62-1.774.72-.355 1.44-.71 2.34-.71 1.26 0 2.34.355 3.06.887.72.532 1.08 1.42 1.26 2.661h-2.16c-.18-.532-.36-1.064-.72-1.419s-.9-.355-1.44-.355c-.72 0-1.26.355-1.8.887-.54.533-.54 1.42-.54 2.484v.71c0 1.064.18 1.951.72 2.484.36.532 1.08.887 1.98.887.9 0 1.44-.178 1.8-.532v-1.775h-1.98v-1.596H89v4.258z"/><path d="M124 94.043c0-4.295-16.429-26.202-49-26.202S26 89.748 26 94.043v-.286 2.29c0 9.164 22 16.323 49 16.323 27.143 0 49-7.015 49-16.322v-2.291.286z" fill="url(#a)"/><path d="M105.286 77.577c0-.859-.143-1.718-.572-2.577C97 70.99 87.143 67.84 75 67.84c-12.143 0-22.143 3.008-29.714 7.16-.286.86-.572 1.718-.572 2.577 0 7.589 13.572 13.746 30.286 13.746 16.714 0 30.286-6.3 30.286-13.746z" fill="url(#b)" opacity=".25"/><path d="M80.143 40.636H69.714c-3.428 2.148-6.428 6.014-8.857 10.31v22.193c0 .286.572 3.58 2.286 4.152 3.714 1.718 6.714 2.004 12.286 2.004 5.142 0 7.714-.143 11.285-1.718C89.43 76.861 89 72.28 89 71.85V50.23c-2.429-4.153-5.571-7.59-8.857-9.594z" fill="url(#c)"/><path d="M115.714 48.655c0-2.72-13.571-12.744-40.714-12.744S34.286 45.934 34.286 48.655v-.144 1.432c0 5.87 18.285 7.589 40.714 7.589s40.714-1.718 40.714-7.589v-1.432.144z" fill="url(#d)"/></g></svg>
